X:1535
T:Jolly Tinker, The
R:reel
N:"collected from Tuohy"
B:"O'Neill's Dance Music of Ireland, 1535"
T: an stanadoir suga.c.
Z:transcribed by John B. Walsh, walsh@math.ubc.ca 8/23/96
M:C|
L:1/8
K:D
A3 F GFGB|A2af gedB|ABAF GFGB|1 dBGB dedB:|2 dBGB d23Bcd||
edef g2 ef|g2af gfed|ed 3efg ageg|a2 bg aged:|
eaag edBd|eaag 3efg dg|eaag efge|dBGB d23Bcd:|
edgd ed 3Bcd|edgd e23Bcd|edgd efge|dBGB d2 Bd:|
eA 3AAA edBd|edef gefd|eA 3AAA efge|dBGB d2 Bd|
eabag edBd|edef gefd|efgb afge|dBGB dedB !D.C.!||
